docs/.gitbook/assets/icon-quotation-marks-16@dark.svg

<svg width="32" height="32" viewBox="0 0 16 16" fill="none" xmlns="http://www.w3.org/2000/svg">
<rect x="0" y="0" width="16" height="16" fill="#181c1f"/>
<path fill-rule="evenodd" clip-rule="evenodd" d="M3.12372 4.762C2.62143 5.45565 2.32995 6.40973 2.26428 7.5123C2.29989 7.50425 2.33695 7.5 2.375 7.5H3H4.25C5.07843 7.5 5.75 8.17157 5.75 9V10.5C5.75 11.3284 5.07843 12 4.25 12H2.75C1.92157 12 1.25 11.3284 1.25 10.5V8C1.25 6.55866 1.57626 5.19397 2.31378 4.1755C3.06637 3.1362 4.21864 2.5 5.75 2.5H6.25C6.52614 2.5 6.75 2.72386 6.75 3C6.75 3.27614 6.52614 3.5 6.25 3.5H5.75C4.53136 3.5 3.68363 3.9888 3.12372 4.762ZM11.1237 4.762C10.6214 5.45565 10.33 6.40973 10.2643 7.5123C10.2999 7.50425 10.337 7.5 10.375 7.5H11H12.25C13.0784 7.5 13.75 8.17157 13.75 9V10.5C13.75 11.3284 13.0784 12 12.25 12H10.75C9.92157 12 9.25 11.3284 9.25 10.5V8C9.25 6.55866 9.57626 5.19397 10.3138 4.1755C11.0664 3.1362 12.2186 2.5 13.75 2.5H14.25C14.5261 2.5 14.75 2.72386 14.75 3C14.75 3.27614 14.5261 3.5 14.25 3.5H13.75C12.5314 3.5 11.6836 3.9888 11.1237 4.762Z" fill="#fff"/>
</svg>

<svg xmlns="http://www.w3.org/2000/svg" width="32" height="32" fill="none" viewBox="0 0 16 16"><path fill="#181c1f" d="M0 0h16v16H0z"/><path fill="#fff" fill-rule="evenodd" d="M3.124 4.762c-.503.694-.794 1.648-.86 2.75a.5.5 0 0 1 .111-.012H4.25A1.5 1.5 0 0 1 5.75 9v1.5a1.5 1.5 0 0 1-1.5 1.5h-1.5a1.5 1.5 0 0 1-1.5-1.5V8c0-1.441.326-2.806 1.064-3.824C3.066 3.136 4.219 2.5 5.75 2.5h.5a.5.5 0 0 1 0 1h-.5c-1.219 0-2.066.489-2.626 1.262m8 0c-.503.694-.794 1.648-.86 2.75a.5.5 0 0 1 .111-.012h1.875a1.5 1.5 0 0 1 1.5 1.5v1.5a1.5 1.5 0 0 1-1.5 1.5h-1.5a1.5 1.5 0 0 1-1.5-1.5V8c0-1.441.326-2.806 1.064-3.824.752-1.04 1.905-1.676 3.436-1.676h.5a.5.5 0 0 1 0 1h-.5c-1.219 0-2.066.489-2.626 1.262" clip-rule="evenodd"/></svg>
